X:1
T:Hinchman, 78.78.77
T:Uzziah Christopher Burnap, 1869
T:Hinchman, 78.78.77
T:Public Domain
C:Uzziah Christopher Burnap, 1869
Z:Public Domain
%%score ( 1 2 ) ( 3 4 )
L:1/8
M:3/4
K:F
V:1 treble 
V:2 treble 
V:3 bass 
V:4 bass 
V:1
 [FA][CF] | C2 [CA]2 [CB][CA] | [B,G]4 [B,G][B,F] | [B,E]2 [B,F]2 [B,G][B,A] | %4
 [B,G]2 [A,F]4 [CA][DA] | [EA]2 [Ec]2 [Ec][D=B] | [D=B]2 [CA]2 [Ec][Fc] | [Gc]2 [Ge]2 [Fe][Fd] | %8
 [Fd]2 [E-c]2 E2 [FA][CF] | [A,C]2 [CA]2 [CB][CA] | [B,G]4 [B,G][B,F] | [B,E]2 [B,F]2 [B,G][CA] | %12
 [A,F]4 |] %13
V:2
 x2 | C2 x4 | x6 | x6 | x8 | x6 | x6 | x6 | x4 B2 x2 | x6 | x6 | x6 | x4 |] %13
V:3
 [F,C][F,A,] | F,2 =F,2 [D,^F,][D,F,] | [G,,G,]4 [G,,G,][G,,G,] | [C,G,]2 [C,D,]2 [C,E,][C,E,] | %4
 [B,,E,]2 [F,,F,]4 [F,A,][F,=B,] | [E,C]2 [E,A,]2 [E,^G,][E,G,] | [E,^G,]2 [A,,A,]2 [A,C][_A,D] | %7
 [G,E]2 [G,C]2 [G,=B,][G,,G,B,] | [G,,G,=B,]2 [C,C]4 [F,C][F,A,] | F,2 F,2 [D,^F,][D,F,] | %10
 [G,,G,]4 [G,,G,][G,,G,] | [C,G,]2 [C,D,]2 [C,E,][C,E,] | [F,,F,]4 |] %13
V:4
 x2 | ^F,2 ^F,2 x2 | x6 | x6 | x8 | x6 | x6 | x6 | x8 | x6 | x6 | x6 | x4 |] %13

